X:37
T:Reel 37
M: 4/4
L:1/8
K: D Major
AG|FABAFDEC|DFFAd2cd|BAGFGFED|EFEDB,2EG|FAEGFDEC|DFFAd2cd|BABcdBAF|EDECD2|FA|BdedcABd|FdBdAdBc|dBAFGEFD|EDEFG2AG|FGFE(3FGABc|dcBcB2AF|G2GEFDEF|Ddced2|.abc